X:1
T:Title
%%score { ( 1 5 6 ) | ( 2 3 4 ) }
L:1/8
M:4/4
K:Ab
V:1 treble nm="Grand Piano"
V:5 treble 
V:6 treble 
V:2 bass 
V:3 bass 
V:4 bass 
V:1
 z4 z2[Q:1/4=90] CD | [CE]c[Ec]c [Fd]c[EB]A | [FA]A[EG]F [A,CE]2 EA | [CA]G[B,G]A [DB]=A[DB]_c | %4
 [Ec]6 CD | [CE]c[Ec][Ec] [Fd]c[EB]A | [FA]A[EG]F [A,CE]2 cc | [GB]B[_G=A]B [_Ac]c[A=d][Ad] | %8
[M:3/4] [Ge]6 |[M:1/4] z F |[M:4/4] G6 z2 | z [Ec]3- [Ec]2 z2 | z2 A,A, z FBc |[M:9/8] B6- B z z | %14
[M:4/4] c6 z2 | [DB]4 [DF]2 GF | E c3 c3 B |[M:3/4] [CA]6 |] %18
V:2
 z4 z2 A,B, | z E z E z E z =E | z[K:treble] F z D[K:bass] A,,2 CC | z B, z C z C z =D | %4
 z2 E,2 A,2 A,B, | z E E,2 A,-[A,-E]A,-[A,=E] | z[K:treble] F z D[K:bass] A,,2 EA | %7
 z[K:treble] G z G[K:bass] z A B,2 |[M:3/4] [E,B,]2 B,,2 E,,2 |[M:1/4] E=D |[M:4/4] D6 z2 | %11
 [A,,A,][A,,A,]A,,A,, A,,A,,CE | D6 z2 |[M:9/8] [E,G,E][E,G,][F,A,] [F,A,] [G,B,]2- [G,B,] z z | %14
[M:4/4] E4- E[A,E][F,=A,F][F,A,E] | [B,,B,]4 [B,,B,]2 [=D,A,_C][D,A,C] | %16
 [E,A,C] [E,A,E]3 [E,G,E]3 [E,D] |[M:3/4] [A,,E,]6 |] %18
V:3
 x8 | z2 E,2 A,4 | z2[K:treble] A,2[K:bass] z4 | z2 E,2 G,2 E,2 | A,,6 z2 | A,,4 A,,2 C,2 | %6
 z2[K:treble] B,2[K:bass] z4 | z2[K:treble] B,2[K:bass] z4 |[M:3/4] x6 |[M:1/4] x2 | %10
[M:4/4] z2 E,E, E,[E,B,F][E,G,E][E,G,D] | x8 | z2 D,D, D,2 [B,,A,]2 |[M:9/8] x9 |[M:4/4] x8 | x8 | %16
 x8 |[M:3/4] x6 |] %18
V:4
 x8 | A,,6 C,2 | D,4[K:treble][K:bass] z4 | E,,4 z4 | x8 | x8 | D,4[K:treble][K:bass] z4 | %7
 B,,4[K:treble][K:bass] B,,4 |[M:3/4] x6 |[M:1/4] x2 |[M:4/4] x8 | x8 | x8 |[M:9/8] x9 | %14
[M:4/4] x8 | x8 | x8 |[M:3/4] x6 |] %18
V:5
 x8 | x8 | x8 | x8 | x8 | x8 | x8 | x8 |[M:3/4] x6 |[M:1/4] x2 |[M:4/4] z2 B,B, B,dcB | %11
 .[CA]2 A,A, A,A,AG | F6 =D2 |[M:9/8] z E=D D _D2- DEE |[M:4/4] z2 A,A, A,cdc | x8 | x8 | %17
[M:3/4] x6 |] %18
V:6
 x8 | x8 | x8 | x8 | x8 | x8 | x8 | x8 |[M:3/4] x6 |[M:1/4] x2 |[M:4/4] x8 | x8 | z4 A,2 z2 | %13
[M:9/8] x9 |[M:4/4] x8 | x8 | x8 |[M:3/4] x6 |] %18

